src/lib/assets/images/github.svg

<svg width="40" height="40" viewBox="0 0 40 40" fill="none" xmlns="http://www.w3.org/2000/svg">
<path fill-rule="evenodd" clip-rule="evenodd" d="M20.0165 0C8.94791 0 0 9.16667 0 20.5071C0 29.5721 5.73324 37.2454 13.6868 39.9612C14.6812 40.1654 15.0454 39.52 15.0454 38.9771C15.0454 38.5017 15.0126 36.8721 15.0126 35.1742C9.4445 36.3967 8.28498 32.7296 8.28498 32.7296C7.39015 30.3529 6.06429 29.7421 6.06429 29.7421C4.24185 28.4858 6.19704 28.4858 6.19704 28.4858C8.21861 28.6217 9.27938 30.5908 9.27938 30.5908C11.0686 33.7142 13.9518 32.8317 15.1118 32.2883C15.2773 30.9642 15.8079 30.0475 16.3713 29.5383C11.9303 29.0629 7.25781 27.2975 7.25781 19.4204C7.25781 17.1796 8.05267 15.3462 9.31216 13.9204C9.11344 13.4113 8.41733 11.3058 9.51128 8.48792C9.51128 8.48792 11.2014 7.94458 15.0122 10.5929C16.6438 10.144 18.3263 9.91567 20.0165 9.91375C21.7067 9.91375 23.4295 10.1517 25.0205 10.5929C28.8317 7.94458 30.5218 8.48792 30.5218 8.48792C31.6158 11.3058 30.9192 13.4113 30.7205 13.9204C32.0132 15.3462 32.7753 17.1796 32.7753 19.4204C32.7753 27.2975 28.1028 29.0287 23.6287 29.5383C24.358 30.1833 24.9873 31.4054 24.9873 33.3408C24.9873 36.0908 24.9545 38.2979 24.9545 38.9767C24.9545 39.52 25.3192 40.1654 26.3132 39.9617C34.2667 37.245 39.9999 29.5721 39.9999 20.5071C40.0327 9.16667 31.052 0 20.0165 0Z" fill="white"/>
</svg>

<svg xmlns="http://www.w3.org/2000/svg" width="40" height="40" fill="none"><path fill="#fff" fill-rule="evenodd" d="M20.017 0C8.947 0 0 9.167 0 20.507c0 9.065 5.733 16.738 13.687 19.454.994.204 1.358-.441 1.358-.984 0-.475-.032-2.105-.032-3.803-5.569 1.223-6.728-2.444-6.728-2.444-.895-2.377-2.22-2.988-2.22-2.988-1.823-1.256.132-1.256.132-1.256 2.022.136 3.082 2.105 3.082 2.105 1.79 3.123 4.673 2.24 5.833 1.697.165-1.324.696-2.24 1.26-2.75-4.442-.475-9.114-2.24-9.114-10.118 0-2.24.795-4.074 2.054-5.5-.199-.509-.895-2.614.2-5.432 0 0 1.69-.543 5.5 2.105a18.943 18.943 0 0 1 5.005-.68c1.69 0 3.413.239 5.003.68 3.812-2.648 5.502-2.105 5.502-2.105 1.094 2.818.397 4.923.199 5.432 1.292 1.426 2.054 3.26 2.054 5.5 0 7.877-4.672 9.609-9.146 10.118.729.645 1.358 1.867 1.358 3.803 0 2.75-.032 4.957-.032 5.636 0 .543.364 1.188 1.358.985C34.267 37.245 40 29.572 40 20.507 40.033 9.167 31.052 0 20.017 0Z" clip-rule="evenodd"/></svg>
